icon/cg/push-right.svg

<svg viewBox="0 0 24 24" fill="none" xmlns="http://www.w3.org/2000/svg" height="1em" width="1em">
  <path d="M1 12.9999V10.9999H15.4853L12.2427 7.75724L13.6569 6.34303L19.3137 11.9999L13.6569 17.6567L12.2427 16.2425L15.4853 12.9999H1Z" fill="currentColor"/>
  <path d="M20.2877 6V18H22.2877V6H20.2877Z" fill="currentColor"/>
</svg>

<svg width="24" height="24" fill="none" xmlns="http://www.w3.org/2000/svg"><path d="M1 13v-2h14.485l-3.242-3.243 1.414-1.414L19.314 12l-5.657 5.657-1.414-1.415L15.485 13H1ZM20.288 6v12h2V6h-2Z" fill="currentColor"/></svg>
